X:1
T:Title
%%score [ ( 1 2 ) ( 3 4 ) ]
L:1/8
Q:1/4=120
M:4/4
K:Ab
V:1 treble nm="Midi_74" snm=" "
V:2 treble 
V:3 bass nm="Midi_74"
V:4 bass 
V:1
"^Mary Maude\n1819-1913"!mf! c3!f!!mp! c d2 B2 |"^," F2 G2"^Thine for ever" A4 | B3 B c2 B2 | %3
w: Thine for e- ver!|God of love,|Hear us from thy|
w: |||
w: Thine for e- ver!|Lord of life,|Shield us through our|
 B2 A2"^Archbishop William Maclagan\n1826-1910" G4 | B3 c d2 B2 | e2 A2 (A2 G2) | A3 A B2 c2 | %7
w: throne a- bove;|Thine for e- ver|may we be *|Here and in e-|
w: ||||
w: earth- ly strife;|Thou the Life, the|Truth, the Way, *|Guide us to the|
 d2 B2 A4 |] %8
w: ter- ni- ty.|
w: |
w: realms of day.|
V:2
 E3 E D2 F2 | D2 D2 C4 | E3 E E2 =D2 | E2 F2 E4 | F3 E D2 E2 | E2 =D2 (E2 E2) | C3 C F2 E2 | %7
w: |||||||
w: Thine for e- ver!|O, how blest|They who find in|thee their rest!|Sa- viour, Guar- dian,|heav'n- ly Friend, *|O de- fend us|
w: |||||||
w: Thine for e- ver!|thou our guide,|All our wants by|thee sup- plied,|All our sins by|thee for- gi- ven,|Led by thee from|
 D2 D2 C4 |] %8
w: |
w: to the end.|
w: |
w: earth to heav'n.|
V:3
 A,3 A, A,2 B,2 | B,2 B,2 A,4 | G,3 G, A,2 F,2 | C2 B,2 B,4 | %4
"^This edition produced by Andrew Sims 2008" B,3 =A, B,2 G,2 | A,2 B,2 (B,2 B,2) | %6
 F,3 F, F,2 =A,2 | B,2 G,2 A,4 |] %8
V:4
 A,3 A, F,2 D,2 | B,,2 E,2 A,,4 | E,3 E, A,,2 B,,2 | C,2 =D,2 E,4 | D,3 C, B,,2 E,2 | %5
 C,2 F,2 (E,2 E,2) | F,3 E, D,2 C,2 | B,,2 E,2 A,,4 |] %8

